X: 033
T: Miss Jessy Scott's Reel
C: by John Pringle
B: John Pringle "Collection of Reels Strathspeys & Jigs", 1801 p.3#3
Z: 2011 John Chambers <jc:trillian.mit.edu>
R: reel
M: C|
L: 1/8
K: D
V: 1
g | fdec ~d2A=c | BGAF GEEg | fdec ~d2Ac | dfeg fdd :|
g | fede fgaf | gbaf beeg | fede fgaf | gbag fddg |
    fede fgaf | gbaf beeg | fdAd FdDg | (f/g/a) eg fdd |]
V: 2 clef=bass middle=d
z | d2A2 d2f2 | g2f2 a2A2 | d2c2 d2f2 | a2A2 d2D :|
z | d2d2 d2f2 | g2f2 a2A2 | d2D2 d2f2 | g2a2 d2D2 |
    d2D2 d2f2 | g2f2 a2A2 | d2f2 a2f2 | a2A2 d2D |]

%%sep 2 1 500

